icons/Stop-Square.svg

<svg width="24" height="24" viewBox="0 0 24 24" fill="none" xmlns="http://www.w3.org/2000/svg">
<g id="Stop-Square">
<path id="Vector" d="M17 3H7C4.79086 3 3 4.79086 3 7V17C3 19.2091 4.79086 21 7 21H17C19.2091 21 21 19.2091 21 17V7C21 4.79086 19.2091 3 17 3Z" stroke="#00153F" stroke-width="1.5" stroke-linecap="round" stroke-linejoin="round"/>
<path id="Vector_2" d="M14.1 8.5H9.9C9.1268 8.5 8.5 9.1268 8.5 9.9V14.1C8.5 14.8732 9.1268 15.5 9.9 15.5H14.1C14.8732 15.5 15.5 14.8732 15.5 14.1V9.9C15.5 9.1268 14.8732 8.5 14.1 8.5Z" stroke="#00153F" stroke-width="1.5" stroke-linecap="round" stroke-linejoin="round"/>
</g>
</svg>

<svg xmlns="http://www.w3.org/2000/svg" fill="none" viewBox="0 0 24 24"><g stroke="currentColor" stroke-linecap="round" stroke-linejoin="round" stroke-width="1.5"><path d="M17 3H7a4 4 0 0 0-4 4v10a4 4 0 0 0 4 4h10a4 4 0 0 0 4-4V7a4 4 0 0 0-4-4Z"/><path d="M14.1 8.5H9.9a1.4 1.4 0 0 0-1.4 1.4v4.2a1.4 1.4 0 0 0 1.4 1.4h4.2a1.4 1.4 0 0 0 1.4-1.4V9.9a1.4 1.4 0 0 0-1.4-1.4Z"/></g></svg>
